icons/line/sparkles.svg

<svg width="24" height="24" viewBox="0 0 24 24" fill="none" xmlns="http://www.w3.org/2000/svg">
<path fill-rule="evenodd" clip-rule="evenodd" d="M6 3C6 2.44772 5.55228 2 5 2C4.44772 2 4 2.44772 4 3V4H3C2.44772 4 2 4.44772 2 5C2 5.55228 2.44772 6 3 6H4V7C4 7.55228 4.44772 8 5 8C5.55228 8 6 7.55228 6 7V6H7C7.55228 6 8 5.55228 8 5C8 4.44772 7.55228 4 7 4H6V3ZM14 3C14 2.44772 13.5523 2 13 2C12.4477 2 12 2.44772 12 3C12 4.44356 11.8013 6.47615 10.8375 8.11899C9.92422 9.67566 8.25973 11 5 11C4.44772 11 4 11.4477 4 12C4 12.5523 4.44772 13 5 13C6.32757 13 8.08242 13.4032 9.48598 14.5692C10.8524 15.7043 12 17.6561 12 21C12 21.5523 12.4477 22 13 22C13.5523 22 14 21.5523 14 21C14 19.5564 14.1987 17.5239 15.1625 15.881C16.0758 14.3243 17.7403 13 21 13C21.5523 13 22 12.5523 22 12C22 11.4477 21.5523 11 21 11C19.6724 11 17.9176 10.5968 16.514 9.43081C15.1476 8.29566 14 6.34392 14 3ZM12.5625 9.13101C12.7493 8.81273 12.9124 8.48623 13.0547 8.15589C13.6163 9.32252 14.37 10.2498 15.236 10.9692C15.68 11.338 16.147 11.6469 16.6236 11.9033C15.1791 12.6038 14.1483 13.6574 13.4375 14.869C13.2507 15.1873 13.0876 15.5138 12.9453 15.8441C12.3837 14.6775 11.63 13.7502 10.764 13.0308C10.32 12.662 9.85301 12.3531 9.37643 12.0967C10.8209 11.3962 11.8517 10.3426 12.5625 9.13101Z" fill="currentColor"/>
</svg>

<svg width="24" height="24" fill="none" xmlns="http://www.w3.org/2000/svg"><path fill-rule="evenodd" clip-rule="evenodd" d="M6 3a1 1 0 00-2 0v1H3a1 1 0 000 2h1v1a1 1 0 002 0V6h1a1 1 0 000-2H6V3zm8 0a1 1 0 10-2 0c0 1.444-.199 3.476-1.162 5.119C9.924 9.676 8.26 11 5 11a1 1 0 100 2c1.328 0 3.082.403 4.486 1.57C10.852 15.703 12 17.655 12 21a1 1 0 102 0c0-1.444.199-3.476 1.162-5.119C16.076 14.324 17.74 13 21 13a1 1 0 100-2c-1.328 0-3.082-.403-4.486-1.57C15.148 8.297 14 6.345 14 3zm-1.438 6.131c.187-.318.35-.645.493-.975a8.295 8.295 0 002.181 2.813c.444.369.911.678 1.388.934-1.445.7-2.476 1.754-3.186 2.966a8.82 8.82 0 00-.493.975 8.296 8.296 0 00-2.181-2.813 8.388 8.388 0 00-1.388-.934c1.445-.7 2.476-1.754 3.187-2.966z" fill="currentColor"/></svg>
